usr/share/icons/biglinux-icons-material/scalable/places/red-user-home.svg

<?xml version="1.0" encoding="UTF-8" standalone="no"?>
<svg
   width="24"
   height="24"
   viewBox="0 0 24 24"
   fill="none"
   version="1.1"
   id="svg17"
   sodipodi:docname="red-user-home.svg"
   inkscape:version="1.3 (0e150ed6c4, 2023-07-21)"
   inkscape:export-filename="../../../../../../../../../Imagens/Big Icons/red-user-home.pdf"
   inkscape:export-xdpi="96"
   inkscape:export-ydpi="96"
   xml:space="preserve"
   xmlns:inkscape="http://www.inkscape.org/namespaces/inkscape"
   xmlns:sodipodi="http://sodipodi.sourceforge.net/DTD/sodipodi-0.dtd"
   xmlns="http://www.w3.org/2000/svg"
   xmlns:svg="http://www.w3.org/2000/svg"><sodipodi:namedview
     id="namedview17"
     pagecolor="#ffffff"
     bordercolor="#000000"
     borderopacity="0.25"
     inkscape:showpageshadow="2"
     inkscape:pageopacity="0.0"
     inkscape:pagecheckerboard="0"
     inkscape:deskcolor="#d1d1d1"
     inkscape:zoom="23.894316"
     inkscape:cx="9.5210928"
     inkscape:cy="17.682029"
     inkscape:window-width="1280"
     inkscape:window-height="998"
     inkscape:window-x="640"
     inkscape:window-y="0"
     inkscape:window-maximized="0"
     inkscape:current-layer="g1"><inkscape:page
       x="0"
       y="0"
       width="24"
       height="24"
       id="page1"
       margin="0"
       bleed="0" /></sodipodi:namedview><rect
     opacity="0.8125"
     x="1"
     y="1"
     width="22"
     height="22"
     rx="6.5999999"
     fill="url(#paint0_linear_201_71)"
     id="rect1"
     style="fill:url(#paint0_linear_201_71)" /><rect
     opacity="0.125"
     x="3"
     y="2.25"
     width="18"
     height="18"
     rx="4.4000001"
     fill="url(#paint1_linear_201_71)"
     fill-opacity="0.875"
     id="rect2"
     style="fill:url(#paint1_linear_201_71)" /><rect
     x="3.25"
     y="3.25"
     width="17.5"
     height="17.5"
     rx="4.1500001"
     fill="#cccccc"
     stroke="url(#paint2_linear_201_71)"
     stroke-width="0.5"
     id="rect3"
     style="stroke:url(#paint2_linear_201_71)" /><path
     opacity="0.125"
     d="M 1,7.50781 C 1,5.84664 2.34664,4.5 4.00781,4.5 h 4.18267 c 1.07452,0 2.11632,0.36994 2.95012,1.04762 v 0 c 0.8339,0.67768 1.8756,1.04762 2.9502,1.04762 h 5.9014 C 21.6534,6.59524 23,7.94188 23,9.60305 V 15.5 c 0,3.6451 -2.9549,6.6 -6.6,6.6 H 7.6 C 3.95492,22.1 1,19.1451 1,15.5 Z"
     fill="url(#paint3_linear_201_71)"
     fill-opacity="0.875"
     id="path3"
     style="fill:url(#paint3_linear_201_71)" /><g
     opacity="0.875"
     id="g5"><path
       d="M 1,8.40781 C 1,6.74664 2.34664,5.4 4.00781,5.4 h 4.18267 c 1.07452,0 2.11632,0.36994 2.95012,1.04762 v 0 c 0.8339,0.67768 1.8756,1.04762 2.9502,1.04762 h 5.9014 C 21.6534,7.49524 23,8.84188 23,10.5031 V 16.4 C 23,20.0451 20.0451,23 16.4,23 H 7.6 C 3.95492,23 1,20.0451 1,16.4 Z"
       fill="url(#paint4_linear_201_71)"
       id="path4"
       style="fill:url(#paint4_linear_201_71)" /><path
       d="M 22.625,10.5031 V 16.4 c 0,3.438 -2.787,6.225 -6.225,6.225 H 7.6 C 4.16203,22.625 1.375,19.838 1.375,16.4 V 8.40781 C 1.375,6.95375 2.55375,5.775 4.00781,5.775 h 4.18267 c 0.98838,0 1.94662,0.34028 2.71362,0.96363 0.9007,0.73201 2.026,1.13161 3.1867,1.13161 h 5.9014 c 1.454,0 2.6328,1.17875 2.6328,2.63286 z"
       stroke="url(#paint5_linear_201_71)"
       stroke-opacity="0.375"
       stroke-width="0.75"
       stroke-linejoin="round"
       id="path5"
       style="stroke:url(#paint5_linear_201_71)" /></g><defs
     id="defs17"><linearGradient
       id="paint0_linear_201_71"
       x1="23"
       y1="0.99999899"
       x2="1"
       y2="12"
       gradientUnits="userSpaceOnUse"><stop
         stop-color="#E32A2A"
         id="stop5" /><stop
         offset="1"
         stop-color="#680000"
         id="stop6" /></linearGradient><linearGradient
       id="paint1_linear_201_71"
       x1="21"
       y1="4"
       x2="3"
       y2="4"
       gradientUnits="userSpaceOnUse"><stop
         stop-opacity="0.5"
         id="stop7" /><stop
         offset="0.890123"
         id="stop8" /><stop
         offset="1"
         stop-opacity="0"
         id="stop9" /></linearGradient><linearGradient
       id="paint2_linear_201_71"
       x1="12"
       y1="3"
       x2="11.5"
       y2="8"
       gradientUnits="userSpaceOnUse"><stop
         stop-color="#DDDDDD"
         id="stop10" /><stop
         offset="1"
         stop-color="#CCCCCC"
         stop-opacity="0"
         id="stop11" /></linearGradient><linearGradient
       id="paint3_linear_201_71"
       x1="23"
       y1="9"
       x2="1.01236"
       y2="9.52141"
       gradientUnits="userSpaceOnUse"><stop
         stop-opacity="0.5"
         id="stop12" /><stop
         offset="1"
         id="stop13" /></linearGradient><linearGradient
       id="paint4_linear_201_71"
       x1="23"
       y1="5.4000001"
       x2="1.42949"
       y2="23.511499"
       gradientUnits="userSpaceOnUse"><stop
         stop-color="#FF3838"
         id="stop14" /><stop
         offset="1"
         stop-color="#B71414"
         id="stop15" /></linearGradient><linearGradient
       id="paint5_linear_201_71"
       x1="15"
       y1="5.5"
       x2="5.5"
       y2="19.5"
       gradientUnits="userSpaceOnUse"><stop
         stop-color="#FF8383"
         id="stop16" /><stop
         offset="1"
         stop-color="#680000"
         id="stop17" /></linearGradient><linearGradient
       id="a"
       x1="-240.47"
       x2="-240.47"
       y1="-60.605"
       y2="-29.025999"
       gradientTransform="matrix(0.96667,0,0,0.95,262.45,67.575)"
       gradientUnits="userSpaceOnUse"><stop
         stop-color="#4285db"
         offset="0"
         id="stop13351" /><stop
         stop-color="#42b9db"
         offset="1"
         id="stop13353" /></linearGradient><linearGradient
       id="b"
       x1="10.583"
       x2="225.69"
       y1="-184.67999"
       y2="-184.67999"
       gradientTransform="matrix(0.11417,0,0,0.11417,18.557,59.5)"
       gradientUnits="userSpaceOnUse"><stop
         stop-color="#fafbfb"
         offset="0"
         id="stop13356" /><stop
         stop-color="#fafbfb"
         stop-opacity="0"
         offset="1"
         id="stop13358" /></linearGradient><linearGradient
       id="c"
       x1="520"
       x2="410"
       y1="-620"
       y2="-620"
       gradientTransform="matrix(0.0302,0,0,0.0302,18.557,59.5)"
       gradientUnits="userSpaceOnUse"><stop
         offset="0"
         id="stop13361" /><stop
         stop-opacity="0"
         offset="1"
         id="stop13363" /></linearGradient><linearGradient
       x1="23"
       y1="0.99999899"
       x2="1"
       y2="12"
       gradientUnits="userSpaceOnUse"
       gradientTransform="scale(0.75)"
       spreadMethod="pad"
       id="linearGradient2"><stop
         style="stop-opacity:1;stop-color:#e32a2a"
         offset="0"
         id="stop1" /><stop
         style="stop-opacity:1;stop-color:#680000"
         offset="1"
         id="stop2" /></linearGradient><linearGradient
       x1="21"
       y1="4"
       x2="3"
       y2="4"
       gradientUnits="userSpaceOnUse"
       gradientTransform="scale(0.75)"
       spreadMethod="pad"
       id="linearGradient8"><stop
         style="stop-opacity:0.43750668;stop-color:#000000"
         offset="0"
         id="stop6-7" /><stop
         style="stop-opacity:0.87501335;stop-color:#000000"
         offset="0.890123"
         id="stop7-8" /><stop
         style="stop-opacity:0;stop-color:#000000"
         offset="1"
         id="stop8-6" /></linearGradient><clipPath
       clipPathUnits="userSpaceOnUse"
       id="clipPath8"><path
         d="M 0,0 H 19 V 19 H 0 Z"
         id="path8" /></clipPath><mask
       maskUnits="userSpaceOnUse"
       x="0"
       y="0"
       width="1"
       height="1"
       id="mask10"><path
         id="path11"
         d="M 0,0 H 18 V 18 H 0 Z"
         style="fill:url(#linearGradient12);fill-opacity:1;fill-rule:nonzero;stroke:none"
         transform="scale(1.3333333)"
         clip-path="url(#clipPath12)" /></mask><linearGradient
       x1="12"
       y1="3"
       x2="11.5"
       y2="8"
       gradientUnits="userSpaceOnUse"
       gradientTransform="matrix(0.75,0,0,-0.75,0,18)"
       spreadMethod="pad"
       id="linearGradient12"><stop
         style="stop-opacity:1;stop-color:#ffffff"
         offset="0"
         id="stop11-8" /><stop
         style="stop-opacity:0;stop-color:#ffffff"
         offset="1"
         id="stop12-8" /></linearGradient><clipPath
       clipPathUnits="userSpaceOnUse"
       id="clipPath12"><path
         d="M 1,1 H 17 V 17 H 1 Z"
         id="path12" /></clipPath><linearGradient
       x1="12"
       y1="3"
       x2="11.5"
       y2="8"
       gradientUnits="userSpaceOnUse"
       gradientTransform="matrix(0.75,0,0,-0.75,0,18)"
       spreadMethod="pad"
       id="linearGradient14"><stop
         style="stop-opacity:1;stop-color:#dddddd"
         offset="0"
         id="stop13-4" /><stop
         style="stop-opacity:1;stop-color:#cccccc"
         offset="1"
         id="stop14-3" /></linearGradient><clipPath
       clipPathUnits="userSpaceOnUse"
       id="clipPath14"><path
         d="M 1,1 H 17 V 17 H 1 Z"
         id="path14" /></clipPath><linearGradient
       x1="23"
       y1="9"
       x2="1.01236"
       y2="9.52141"
       gradientUnits="userSpaceOnUse"
       gradientTransform="scale(0.75)"
       spreadMethod="pad"
       id="linearGradient18"><stop
         style="stop-opacity:0.43750668;stop-color:#000000"
         offset="0"
         id="stop17-1" /><stop
         style="stop-opacity:0.87501335;stop-color:#000000"
         offset="1"
         id="stop18" /></linearGradient><clipPath
       clipPathUnits="userSpaceOnUse"
       id="clipPath18"><path
         d="M 0,0 H 19 V 19 H 0 Z"
         id="path18" /></clipPath><linearGradient
       x1="23"
       y1="5.4000001"
       x2="1.42949"
       y2="23.511499"
       gradientUnits="userSpaceOnUse"
       gradientTransform="scale(0.75)"
       spreadMethod="pad"
       id="linearGradient20"><stop
         style="stop-opacity:1;stop-color:#ff3838"
         offset="0"
         id="stop19" /><stop
         style="stop-opacity:1;stop-color:#b71414"
         offset="1"
         id="stop20" /></linearGradient><mask
       maskUnits="userSpaceOnUse"
       x="0"
       y="0"
       width="1"
       height="1"
       id="mask20"><path
         id="path20"
         d="M 0,0 H 18 V 18 H 0 Z"
         style="fill:url(#linearGradient22);fill-opacity:1;fill-rule:nonzero;stroke:none"
         transform="scale(1.3333333)"
         clip-path="url(#clipPath22)" /></mask><linearGradient
       x1="15"
       y1="5.5"
       x2="5.5"
       y2="19.5"
       gradientUnits="userSpaceOnUse"
       gradientTransform="matrix(0.75,0,0,-0.75,0,18)"
       spreadMethod="pad"
       id="linearGradient22"><stop
         style="stop-opacity:0.37500572;stop-color:#ffffff"
         offset="0"
         id="stop21" /><stop
         style="stop-opacity:0.37500572;stop-color:#ffffff"
         offset="1"
         id="stop22" /></linearGradient><clipPath
       clipPathUnits="userSpaceOnUse"
       id="clipPath22"><path
         d="M 0,4 H 18 V 18 H 0 Z"
         id="path22" /></clipPath><linearGradient
       x1="15"
       y1="5.5"
       x2="5.5"
       y2="19.5"
       gradientUnits="userSpaceOnUse"
       gradientTransform="matrix(0.75,0,0,-0.75,0,18)"
       spreadMethod="pad"
       id="linearGradient24"><stop
         style="stop-opacity:1;stop-color:#ff8383"
         offset="0"
         id="stop23" /><stop
         style="stop-opacity:1;stop-color:#680000"
         offset="1"
         id="stop24" /></linearGradient><clipPath
       clipPathUnits="userSpaceOnUse"
       id="clipPath24"><path
         d="M 0,4 H 18 V 18 H 0 Z"
         id="path24" /></clipPath><clipPath
       clipPathUnits="userSpaceOnUse"
       id="clipPath25"><path
         d="M 0,0 H 19 V 19 H 0 Z"
         transform="scale(1.3333333)"
         id="path25" /></clipPath><clipPath
       clipPathUnits="userSpaceOnUse"
       id="clipPath28"><path
         d="M 0,0 H 19 V 19 H 0 Z"
         id="path28" /></clipPath><linearGradient
       x1="4.2245622"
       y1="9.7728081"
       x2="9.0562277"
       y2="6.5767541"
       gradientUnits="userSpaceOnUse"
       gradientTransform="matrix(3.4626106,0,0,3.4626106,-48.194757,-14.099156)"
       spreadMethod="pad"
       id="linearGradient30"><stop
         style="stop-opacity:1;stop-color:#822b2b"
         offset="0"
         id="stop29" /><stop
         style="stop-opacity:1;stop-color:#a43737"
         offset="1"
         id="stop30" /></linearGradient><clipPath
       clipPathUnits="userSpaceOnUse"
       id="clipPath28-9"><path
         d="M 0,0 H 19 V 19 H 0 Z"
         id="path28-2" /></clipPath></defs><g
     id="g1"
     inkscape:groupmode="layer"
     inkscape:label="1"
     transform="translate(34)"><g
       opacity="0.15"
       id="g29"
       transform="translate(-33.997272,0.00979545)"><path
         d="m 8.637,10.875 c 1,0 1.859,-0.891 1.859,-2.051 0,-1.148 -0.867,-2 -1.859,-2 -0.996,0 -1.86,0.871 -1.86,2.008 0,1.152 0.86,2.043 1.86,2.043 z m -2.922,4.301 h 5.84 c 0.726,0 0.988,-0.207 0.988,-0.617 0,-1.2 -1.5,-2.852 -3.91,-2.852 -2.406,0 -3.906,1.652 -3.906,2.852 0,0.41 0.257,0.617 0.988,0.617 z"
         style="fill:#1a1a1a;fill-opacity:1;fill-rule:nonzero;stroke:none"
         transform="scale(1.3333333)"
         clip-path="url(#clipPath28-9)"
         id="path29" /></g><path
       id="path30-4"
       d="m -21.991939,14.040461 c 1.328,0 2.473333,-1.192 2.473333,-2.738667 0,-1.5319995 -1.150666,-2.661332 -2.473333,-2.661332 -1.328,0 -2.478667,1.1559995 -2.478667,2.671999 0,1.536 1.145334,2.728 2.478667,2.728 z m -3.896,5.734666 h 7.781333 c 0.973334,0 1.322667,-0.281333 1.322667,-0.822666 0,-1.598667 -2,-3.802667 -5.218667,-3.802667 -3.208,0 -5.208,2.204 -5.208,3.802667 0,0.541333 0.349334,0.822666 1.322667,0.822666 z"
       style="fill:url(#linearGradient30);stroke:none;stroke-width:1.33333" /></g></svg>

<?xml version="1.0" encoding="UTF-8" standalone="no"?>
<svg
   width="24"
   height="24"
   viewBox="0 0 24 24"
   fill="none"
   version="1.1"
   id="svg17"
   sodipodi:docname="red-user-home.svg"
   inkscape:version="1.3 (0e150ed6c4, 2023-07-21)"
   xmlns:inkscape="http://www.inkscape.org/namespaces/inkscape"
   xmlns:sodipodi="http://sodipodi.sourceforge.net/DTD/sodipodi-0.dtd"
   xmlns:xlink="http://www.w3.org/1999/xlink"
   xmlns="http://www.w3.org/2000/svg"
   xmlns:svg="http://www.w3.org/2000/svg">
  <sodipodi:namedview
     id="namedview17"
     pagecolor="#ffffff"
     bordercolor="#000000"
     borderopacity="0.25"
     inkscape:showpageshadow="2"
     inkscape:pageopacity="0.0"
     inkscape:pagecheckerboard="0"
     inkscape:deskcolor="#d1d1d1"
     inkscape:zoom="11.947158"
     inkscape:cx="9.7512728"
     inkscape:cy="11.509013"
     inkscape:window-width="1280"
     inkscape:window-height="998"
     inkscape:window-x="0"
     inkscape:window-y="0"
     inkscape:window-maximized="0"
     inkscape:current-layer="svg17" />
  <rect
     opacity="0.8125"
     x="1"
     y="1"
     width="22"
     height="22"
     rx="6.6"
     fill="url(#paint0_linear_201_71)"
     id="rect1" />
  <rect
     opacity="0.125"
     x="3"
     y="2.25"
     width="18"
     height="18"
     rx="4.4"
     fill="url(#paint1_linear_201_71)"
     fill-opacity="0.875"
     id="rect2" />
  <rect
     x="3.25"
     y="3.25"
     width="17.5"
     height="17.5"
     rx="4.15"
     fill="#CCCCCC"
     stroke="url(#paint2_linear_201_71)"
     stroke-width="0.5"
     id="rect3" />
  <path
     opacity="0.125"
     d="M1 7.50781C1 5.84664 2.34664 4.5 4.00781 4.5H8.19048C9.265 4.5 10.3068 4.86994 11.1406 5.54762V5.54762C11.9745 6.2253 13.0162 6.59524 14.0908 6.59524H19.9922C21.6534 6.59524 23 7.94188 23 9.60305V15.5C23 19.1451 20.0451 22.1 16.4 22.1H7.6C3.95492 22.1 1 19.1451 1 15.5V7.50781Z"
     fill="url(#paint3_linear_201_71)"
     fill-opacity="0.875"
     id="path3" />
  <g
     opacity="0.875"
     id="g5">
    <path
       d="M1 8.40781C1 6.74664 2.34664 5.4 4.00781 5.4H8.19048C9.265 5.4 10.3068 5.76994 11.1406 6.44762V6.44762C11.9745 7.1253 13.0162 7.49524 14.0908 7.49524H19.9922C21.6534 7.49524 23 8.84188 23 10.5031V16.4C23 20.0451 20.0451 23 16.4 23H7.6C3.95492 23 1 20.0451 1 16.4V8.40781Z"
       fill="url(#paint4_linear_201_71)"
       id="path4" />
    <path
       d="M22.625 10.5031V16.4C22.625 19.838 19.838 22.625 16.4 22.625H7.6C4.16203 22.625 1.375 19.838 1.375 16.4V8.40781C1.375 6.95375 2.55375 5.775 4.00781 5.775H8.19048C9.17886 5.775 10.1371 6.11528 10.9041 6.73863C11.8048 7.47064 12.9301 7.87024 14.0908 7.87024H19.9922C21.4462 7.87024 22.625 9.04899 22.625 10.5031Z"
       stroke="url(#paint5_linear_201_71)"
       stroke-opacity="0.375"
       stroke-width="0.75"
       stroke-linejoin="round"
       id="path5" />
  </g>
  <defs
     id="defs17">
    <linearGradient
       id="paint0_linear_201_71"
       x1="23"
       y1="0.999999"
       x2="1"
       y2="12"
       gradientUnits="userSpaceOnUse">
      <stop
         stop-color="#E32A2A"
         id="stop5" />
      <stop
         offset="1"
         stop-color="#680000"
         id="stop6" />
    </linearGradient>
    <linearGradient
       id="paint1_linear_201_71"
       x1="21"
       y1="4"
       x2="3"
       y2="4"
       gradientUnits="userSpaceOnUse">
      <stop
         stop-opacity="0.5"
         id="stop7" />
      <stop
         offset="0.890123"
         id="stop8" />
      <stop
         offset="1"
         stop-opacity="0"
         id="stop9" />
    </linearGradient>
    <linearGradient
       id="paint2_linear_201_71"
       x1="12"
       y1="3"
       x2="11.5"
       y2="8"
       gradientUnits="userSpaceOnUse">
      <stop
         stop-color="#DDDDDD"
         id="stop10" />
      <stop
         offset="1"
         stop-color="#CCCCCC"
         stop-opacity="0"
         id="stop11" />
    </linearGradient>
    <linearGradient
       id="paint3_linear_201_71"
       x1="23"
       y1="9"
       x2="1.01236"
       y2="9.52141"
       gradientUnits="userSpaceOnUse">
      <stop
         stop-opacity="0.5"
         id="stop12" />
      <stop
         offset="1"
         id="stop13" />
    </linearGradient>
    <linearGradient
       id="paint4_linear_201_71"
       x1="23"
       y1="5.4"
       x2="1.42949"
       y2="23.5115"
       gradientUnits="userSpaceOnUse">
      <stop
         stop-color="#FF3838"
         id="stop14" />
      <stop
         offset="1"
         stop-color="#B71414"
         id="stop15" />
    </linearGradient>
    <linearGradient
       id="paint5_linear_201_71"
       x1="15"
       y1="5.5"
       x2="5.5"
       y2="19.5"
       gradientUnits="userSpaceOnUse">
      <stop
         stop-color="#FF8383"
         id="stop16" />
      <stop
         offset="1"
         stop-color="#680000"
         id="stop17" />
    </linearGradient>
    <linearGradient
       id="a"
       x1="-240.47"
       x2="-240.47"
       y1="-60.605"
       y2="-29.025999"
       gradientTransform="matrix(0.96667,0,0,0.95,262.45,67.575)"
       gradientUnits="userSpaceOnUse">
      <stop
         stop-color="#4285db"
         offset="0"
         id="stop13351" />
      <stop
         stop-color="#42b9db"
         offset="1"
         id="stop13353" />
    </linearGradient>
    <linearGradient
       id="b"
       x1="10.583"
       x2="225.69"
       y1="-184.67999"
       y2="-184.67999"
       gradientTransform="matrix(0.11417,0,0,0.11417,18.557,59.5)"
       gradientUnits="userSpaceOnUse">
      <stop
         stop-color="#fafbfb"
         offset="0"
         id="stop13356" />
      <stop
         stop-color="#fafbfb"
         stop-opacity="0"
         offset="1"
         id="stop13358" />
    </linearGradient>
    <linearGradient
       id="c"
       x1="520"
       x2="410"
       y1="-620"
       y2="-620"
       gradientTransform="matrix(0.0302,0,0,0.0302,18.557,59.5)"
       gradientUnits="userSpaceOnUse">
      <stop
         offset="0"
         id="stop13361" />
      <stop
         stop-opacity="0"
         offset="1"
         id="stop13363" />
    </linearGradient>
    <linearGradient
       inkscape:collect="always"
       xlink:href="#linearGradient26"
       id="linearGradient31"
       gradientUnits="userSpaceOnUse"
       gradientTransform="matrix(3.462611,0,0,3.462611,-14.197485,-14.108951)"
       x1="4.2245622"
       y1="9.7728081"
       x2="9.0562277"
       y2="6.5767536" />
    <linearGradient
       id="linearGradient26"
       inkscape:collect="always">
      <stop
         style="stop-color:#822b2b;stop-opacity:1;"
         offset="0"
         id="stop26" />
      <stop
         style="stop-color:#a43737;stop-opacity:1;"
         offset="1"
         id="stop27" />
    </linearGradient>
  </defs>
  <path
     d="m 11.514945,14.50084 c 1.331653,0 2.477455,-1.189253 2.477455,-2.73756 0,-1.529881 -1.152069,-2.66328 -2.477455,-2.66328 -1.325385,0 -2.4774517,1.158192 -2.4774517,2.675628 0,1.535959 1.1459277,2.725212 2.4774517,2.725212 z m -3.8956984,5.73539 h 7.7852584 c 0.972484,0 1.319372,-0.278889 1.319372,-0.82393 0,-1.597892 -2.000613,-3.802756 -5.215071,-3.802756 C 8.300485,15.609544 6.3,17.814408 6.3,19.4123 c 0,0.545041 0.3467599,0.82393 1.3192466,0.82393 z"
     fill="url(#paint7_linear_207_119)"
     id="path30"
     style="opacity:0.15;fill:#1a1a1a;stroke-width:1.27909"
     sodipodi:nodetypes="sssssssssss" />
  <path
     d="m 12.003007,14.02983 c 1.331652,0 2.477453,-1.189165 2.477453,-2.737494 0,-1.5299068 -1.152067,-2.6633029 -2.477453,-2.6633029 -1.325386,0 -2.4774523,1.1582077 -2.4774523,2.6755809 0,1.536051 1.1459273,2.725216 2.4774523,2.725216 z m -3.895699,5.735398 h 7.785259 c 0.972484,0 1.319372,-0.278846 1.319372,-0.823858 0,-1.597957 -2.000613,-3.802837 -5.21507,-3.802837 -3.2083226,0 -5.2088076,2.20488 -5.2088076,3.802837 0,0.545017 0.3467597,0.823858 1.3192466,0.823858 z"
     fill="url(#paint7_linear_207_119)"
     id="path31"
     style="fill:url(#linearGradient31);stroke-width:1.27909"
     sodipodi:nodetypes="sssssssssss" />
</svg>
